X:82
T:York Waltz,The. HSJJ.084
M:3/8
L:1/16
Q:3/8=60
S:HSJ Jackson,Wyresdale,Lancs.1823
R:.Waltz
O:England
A:Lancashire
H:1823
Z:vmp.Chris Partington.
K:F
FG|A4B2|c2(de).f2|(BABcdB)|G4FG|!
A4B2|c2(de).f2|efgcde|f4:|!
|(BA)|.G2.G2 AG|.F2.F2 GF|EFGABG|c4ba|!
.g.g.g2 ag|.f.f.f2 gf|efgcde|” DC”f4|]

